remix/Map/map-pin-5-line.svg

<svg viewBox="0 0 24 24" fill="currentColor" xmlns="http://www.w3.org/2000/svg"><path d="M12 18.4853L16.2426 14.2426C18.5858 11.8995 18.5858 8.10051 16.2426 5.75736C13.8995 3.41421 10.1005 3.41421 7.75736 5.75736C5.41421 8.10051 5.41421 11.8995 7.75736 14.2426L12 18.4853ZM17.6569 15.6569L12 21.3137L6.34315 15.6569C3.21895 12.5327 3.21895 7.46734 6.34315 4.34315C9.46734 1.21895 14.5327 1.21895 17.6569 4.34315C20.781 7.46734 20.781 12.5327 17.6569 15.6569ZM5 22H19V24H5V22Z"/></svg>

<svg viewBox="0 0 24 24" xmlns="http://www.w3.org/2000/svg"><path fill="none" d="M0 0h24v24H0Z"/><path d="M12 18.48l4.24-4.25v0c2.34-2.35 2.34-6.15-.01-8.49 -2.35-2.35-6.15-2.35-8.49 0 -2.35 2.34-2.35 6.14-.001 8.48l4.24 4.24Zm5.65-2.83l-5.66 5.65 -5.66-5.657v0c-3.13-3.13-3.13-8.19 0-11.32 3.12-3.13 8.18-3.13 11.31 0 3.12 3.12 3.12 8.18 0 11.31ZM4.99 21.99h14v2h-14v-2Z"/></svg>
